packages/astro-components-stencil/src/icons/solar.svg

<svg width="24" height="24" viewBox="0 0 24 24" fill="none" xmlns="http://www.w3.org/2000/svg">
<path fill-rule="evenodd" clip-rule="evenodd" d="M19.5385 4C20.3456 4 21 4.67008 21 5.49666V17.5033C21 18.3299 20.3456 19 19.5385 19H3.46154C2.65436 19 2 18.3299 2 17.5033V5.49666C2 4.67008 2.65436 4 3.46154 4H19.5385ZM7 6H4V11H7V6ZM11 6H8V11H11V6ZM15 6H12V11H15V6ZM19 6H16V11H19V6ZM7 12H4V17H7V12ZM11 12H8V17H11V12ZM15 12H12V17H15V12ZM19 12H16V17H19V12Z" fill="black"/>
</svg>

<svg xmlns="http://www.w3.org/2000/svg" viewBox="0 0 24 24"><g xmlns="http://www.w3.org/2000/svg" id="solar">
            <path d="M19.538 4C20.346 4 21 4.67 21 5.497v12.006C21 18.33 20.346 19 19.538 19H3.462C2.654 19 2 18.33 2 17.503V5.497C2 4.67 2.654 4 3.462 4h16.076zM7 6H4v5h3V6zm4 0H8v5h3V6zm4 0h-3v5h3V6zm4 0h-3v5h3V6zM7 12H4v5h3v-5zm4 0H8v5h3v-5zm4 0h-3v5h3v-5zm4 0h-3v5h3v-5z"/>
        </g></svg>
